X:1
T:Air crétois
S:François Champs (mai 2005)
D:un album de Ross Daly
Q:1/4=100
M:4/4
L:1/8
K:Em
|: "Em" z A _A=A B3 B | A B2 A G3/F/ E2 | "D" A3/_A/ =AB AG FE | GF E_E "Em" =E4 :|
|: "D" EF FE F/G/A/B/ A/G/F/E/ | DE FD "Em" c2 B2 |
   "D" EF FE F/G/A/B/ A/G/F/E/ | DE FD "Em" C2 B,2 :|
